X: 290
T: Nao huizi
%%abc-version 2.0
%%abcx-abcm2ps-target-version 5.9.1 (29 Sep 2008)
%%abc-creator hum2abc beta
%%abcx-conversion-date 2013/10/02 07:52:29
%%abc-edited-by Helmut Schaffrath
%%humdrum-veritas 2337122914
%%humdrum-veritas-data 3421784076
%%continueall 1
%%barnumbers 0
L: 1/8
M: 2/4
K: A
ee2e [I:setbarnb 1]| 
e B e c | 
B4 | 
e2f e | 
c B A F | 
A EA2 | 
B cB2 | 
cc2B | 
A> F c c | 
B2A F | 
E4 |]  



